icons/svg/transport/parking_multi-storey_paid.svg

<?xml version="1.0" encoding="UTF-8" standalone="no"?>
<!-- Created with Inkscape (http://www.inkscape.org/) -->

<svg
   xmlns:dc="http://purl.org/dc/elements/1.1/"
   xmlns:cc="http://creativecommons.org/ns#"
   xmlns:rdf="http://www.w3.org/1999/02/22-rdf-syntax-ns#"
   xmlns:svg="http://www.w3.org/2000/svg"
   xmlns="http://www.w3.org/2000/svg"
   xmlns:sodipodi="http://sodipodi.sourceforge.net/DTD/sodipodi-0.dtd"
   xmlns:inkscape="http://www.inkscape.org/namespaces/inkscape"
   version="1.0"
   width="580"
   height="580"
   id="svg2"
   sodipodi:version="0.32"
   inkscape:version="0.48.4 r9939"
   sodipodi:docname="parking_multi-storey_paid.svg"
   inkscape:output_extension="org.inkscape.output.svg.inkscape">
  <metadata
     id="metadata10">
    <rdf:RDF>
      <cc:Work
         rdf:about="">
        <dc:format>image/svg+xml</dc:format>
        <dc:type
           rdf:resource="http://purl.org/dc/dcmitype/StillImage" />
        <cc:license
           rdf:resource="http://web.resource.org/cc/PublicDomain" />
        <dc:language>en</dc:language>
        <dc:title />
      </cc:Work>
    </rdf:RDF>
  </metadata>
  <sodipodi:namedview
     inkscape:window-height="1004"
     inkscape:window-width="1920"
     inkscape:pageshadow="2"
     inkscape:pageopacity="0.0"
     guidetolerance="10.0"
     gridtolerance="10.0"
     objecttolerance="10.0"
     borderopacity="1.0"
     bordercolor="#666666"
     pagecolor="#ffffff"
     id="base"
     showgrid="false"
     inkscape:zoom="0.25"
     inkscape:cx="804.42766"
     inkscape:cy="465.95896"
     inkscape:window-x="1680"
     inkscape:window-y="0"
     inkscape:current-layer="svg2"
     inkscape:window-maximized="1" />
  <defs
     id="defs4">
    <inkscape:perspective
       sodipodi:type="inkscape:persp3d"
       inkscape:vp_x="0 : 290 : 1"
       inkscape:vp_y="0 : 1000 : 0"
       inkscape:vp_z="580 : 290 : 1"
       inkscape:persp3d-origin="290 : 193.33333 : 1"
       id="perspective12" />
    <style
       type="text/css"
       id="style6">
   
    .fil0 {fill:#EF7900}
   
  </style>
    <inkscape:perspective
       id="perspective6807"
       inkscape:persp3d-origin="29.116032 : 19.410688 : 1"
       inkscape:vp_z="58.232063 : 29.116032 : 1"
       inkscape:vp_y="0 : 1000 : 0"
       inkscape:vp_x="0 : 29.116032 : 1"
       sodipodi:type="inkscape:persp3d" />
    <inkscape:perspective
       id="perspective6954"
       inkscape:persp3d-origin="290 : 193.33333 : 1"
       inkscape:vp_z="580 : 290 : 1"
       inkscape:vp_y="0 : 1000 : 0"
       inkscape:vp_x="0 : 290 : 1"
       sodipodi:type="inkscape:persp3d" />
    <marker
       viewBox="0 0 10 10"
       refY="5"
       refX="10"
       orient="auto"
       markerWidth="4"
       markerUnits="strokeWidth"
       markerHeight="3"
       id="ArrowStart">
      <path
         id="path2295"
         d="M 10 0 L 0 5 L 10 10 z" />
    </marker>
    <marker
       viewBox="0 0 10 10"
       refY="5"
       refX="0"
       orient="auto"
       markerWidth="4"
       markerUnits="strokeWidth"
       markerHeight="3"
       id="ArrowEnd">
      <path
         id="path2292"
         d="M 0 0 L 10 5 L 0 10 z" />
    </marker>
    <inkscape:perspective
       id="perspective7597"
       inkscape:persp3d-origin="178.5405 : 158.483 : 1"
       inkscape:vp_z="357.08099 : 237.7245 : 1"
       inkscape:vp_y="0 : 1000 : 0"
       inkscape:vp_x="0 : 237.7245 : 1"
       sodipodi:type="inkscape:persp3d" />
  </defs>
  <g
     id="g1327">
    <path
       d="M 66.275,1.768 C 24.94,1.768 1.704,23.139 1.704,66.804 L 1.704,516.927 C 1.704,557.771 22.598,579.156 63.896,579.156 L 515.92,579.156 C 557.227,579.156 578.149,558.84 578.149,516.927 L 578.149,66.804 C 578.149,24.203 557.227,1.768 514.627,1.768 C 514.624,1.768 66.133,1.625 66.275,1.768 z"
       style="fill:#111111;stroke:#eeeeee;stroke-width:3.40799999"
       id="path1329" />
  </g>
  <g
     id="g2319"
     transform="translate(879.29125,36.805119)">
    <path
       id="path2323"
       style="fill:#ffffff;stroke:none"
       d="" />
  </g>
  <g
     id="g2325"
     transform="translate(879.29125,36.805119)">
    <path
       id="path2329"
       style="fill:#ffffff;stroke:none"
       d="" />
  </g>
  <path
     style="font-size:143.53205872px;font-style:normal;font-weight:normal;fill:#ffffff;fill-opacity:1;stroke:#ffffff;stroke-width:17.9834919;stroke-linecap:round;stroke-linejoin:round;stroke-miterlimit:4;stroke-opacity:1;stroke-dasharray:none;font-family:Bitstream Vera Sans"
     d="m 39.324937,378.2669 0,-332.582577 125.455763,0 c 22.08121,3.5e-4 38.94476,1.05905 50.59064,3.17609 16.33398,2.72272 30.02143,7.90276 41.06239,15.5402 11.04044,7.63804 19.92594,18.33847 26.65649,32.10126 6.73003,13.763337 10.09517,28.887587 10.09547,45.372787 -3e-4,28.28257 -8.99923,52.2167 -26.99682,71.80243 -17.99812,19.58605 -50.51523,29.37901 -97.5515,29.3789 l -85.300844,0 0,135.21091 -44.011589,0 z m 44.011589,-174.45838 85.981454,0 c 28.43341,1.7e-4 48.62426,-5.29333 60.57267,-15.88049 11.94791,-10.58678 17.92198,-25.48417 17.92225,-44.69222 -2.7e-4,-13.91407 -3.51664,-25.8244 -10.54919,-35.73103 -7.03303,-9.906137 -16.2966,-16.447367 -27.79085,-19.623737 -7.41107,-1.96588 -21.09851,-2.94894 -41.06236,-2.94924 l -85.073974,0 0,118.876717 z"
     id="text2419"
     inkscape:connector-curvature="0" />
  <path
     style="fill:none;stroke:#ffffff;stroke-width:30.93394661;stroke-linecap:butt;stroke-linejoin:round;stroke-miterlimit:4;stroke-opacity:1;stroke-dasharray:none"
     d="m 333.70574,285 224.20078,0"
     id="path2997"
     inkscape:connector-curvature="0"
     sodipodi:nodetypes="cc" />
  <path
     inkscape:connector-curvature="0"
     style="fill:#ffffff;stroke:none"
     d="m 398.25433,46.165697 c -13.86991,0 -21.2276,7.572065 -24.62435,16.435444 l -18.03093,46.557509 c -7.14779,0.91653 -19.81866,9.30672 -19.81866,25.20101 l 0,59.20606 17.55037,0 0,18.93442 c 0,23.2949 32.96702,23.02055 32.96702,0 l 0,-18.93442 59.30218,0 0.0192,0 59.30215,0 0,18.93442 c 0,23.02055 32.96686,23.2949 32.96705,0 l 0,-18.93442 17.55034,0 0,-59.20606 c 0,-15.89428 -12.67078,-24.28448 -19.81869,-25.20101 L 517.56996,62.601141 C 514.17322,53.737762 506.8156,46.165697 492.94559,46.165697 l -25.48931,0 -43.40504,0 -25.79689,0 z m -0.21146,16.954462 47.51863,0 0.0385,0 0.0192,0 47.53784,0 c 5.94397,0.05534 8.48968,3.77257 10.18805,8.919345 l 13.59045,36.638576 -71.31634,0 -0.0192,0 -0.0385,0 -71.29717,0 13.59049,-36.638576 c 1.69838,-5.146775 4.24344,-8.863999 10.18805,-8.919345 z M 370.3429,126.49756 c 8.41065,0 15.22442,7.01737 15.22442,15.68576 -2e-5,8.669 -6.81377,15.70498 -15.22442,15.70498 -8.41003,0 -15.22442,-7.03599 -15.22442,-15.70498 0,-8.66837 6.81439,-15.68576 15.22442,-15.68576 z m 150.53333,0 c 8.41066,0 15.22448,7.01739 15.22442,15.68576 0,8.66899 -6.81376,15.70498 -15.22442,15.70498 -8.41002,0 -15.24367,-7.03598 -15.24367,-15.70498 0,-8.66839 6.83365,-15.68576 15.24367,-15.68576 z"
     id="path2301" />
  <path
     inkscape:connector-curvature="0"
     style="fill:#ffffff;stroke:none"
     d="m 399.53627,342.48456 c -13.86991,0 -21.2276,7.57207 -24.62435,16.43545 l -18.03093,46.55751 c -7.14779,0.91653 -19.81866,9.30672 -19.81866,25.20101 l 0,59.20605 17.55037,0 0,18.93442 c 0,23.2949 32.96702,23.02055 32.96702,0 l 0,-18.93442 59.30218,0 0.0192,0 59.30215,0 0,18.93442 c 0,23.02055 32.96686,23.2949 32.96705,0 l 0,-18.93442 17.55034,0 0,-59.20605 c 0,-15.89428 -12.67078,-24.28448 -19.81869,-25.20101 L 518.8519,358.92001 c -3.39674,-8.86338 -10.75436,-16.43545 -24.62437,-16.43545 l -25.48931,0 -43.40504,0 -25.79689,0 z m -0.21146,16.95447 47.51863,0 0.0385,0 0.0192,0 47.53784,0 c 5.94397,0.0553 8.48968,3.77257 10.18805,8.91934 l 13.59045,36.63858 -71.31634,0 -0.0192,0 -0.0385,0 -71.29717,0 13.59049,-36.63858 c 1.69838,-5.14677 4.24344,-8.864 10.18805,-8.91934 z m -27.69997,63.3774 c 8.41065,0 15.22442,7.01737 15.22442,15.68576 -2e-5,8.66899 -6.81377,15.70497 -15.22442,15.70497 -8.41003,0 -15.22442,-7.03599 -15.22442,-15.70497 0,-8.66837 6.81439,-15.68576 15.22442,-15.68576 z m 150.53333,0 c 8.41066,0 15.22448,7.01739 15.22442,15.68576 0,8.66898 -6.81376,15.70497 -15.22442,15.70497 -8.41002,0 -15.24367,-7.03598 -15.24367,-15.70497 0,-8.66839 6.83365,-15.68576 15.24367,-15.68576 z"
     id="path2301-3" />
  <g
     transform="matrix(0.92025821,0,0,0.92025821,-204.96584,254.48254)"
     id="g4998">
    <g
       id="g4372">
      <path
         inkscape:connector-curvature="0"
         transform="scale(1.0867055,0.9202125)"
         style="font-size:323.14517212px;font-style:normal;font-variant:normal;font-weight:normal;font-stretch:normal;text-align:start;line-height:125%;writing-mode:lr-tb;text-anchor:start;fill:#ffffff;fill-opacity:1;stroke:none;font-family:Arial Unicode MS;-inkscape-font-specification:Arial Unicode MS"
         d="m 428.26872,167.17928 c 0.21028,0.10532 0.99921,0.3157 2.36679,0.63114 21.56392,4.20775 37.76324,11.88665 48.598,23.03672 10.83446,11.15029 16.25177,25.77175 16.25193,43.86443 -1.6e-4,18.51357 -5.94342,34.55511 -17.82979,48.12465 -11.88666,13.56957 -28.34895,20.9329 -49.38693,22.09 l 0,28.717 -16.88307,0 0,-28.40143 c -21.45892,-2.41938 -37.92122,-9.38825 -49.38694,-20.90661 -11.46578,-11.51833 -17.93499,-27.63875 -19.40764,-48.36132 l 28.40143,-5.04915 c 2.20896,15.56825 6.67955,27.55995 13.41179,35.97515 6.73213,8.41526 15.72591,13.20143 26.98136,14.3585 l 0,-90.41122 c -21.35373,-4.62827 -37.34267,-12.35976 -47.96686,-23.1945 -10.62427,-10.83448 -15.93638,-24.77221 -15.93636,-41.81322 -2e-5,-16.93548 5.2595,-31.478049 15.77857,-43.627756 10.51901,-12.149271 26.56054,-19.170729 48.12465,-21.064395 l 0,-13.569573 16.88307,0 0,13.569573 c 17.88227,1.788476 31.97778,7.468756 42.28658,17.040859 10.30851,9.572546 16.77772,22.984322 19.40764,40.235362 l -29.50593,4.26021 C 458.77383,111.95446 455.24996,103.46034 449.88537,97.201308 444.52054,90.942683 437.315,86.919151 428.26872,85.1307 l 0,82.04858 z m -16.88307,-3.47129 0,-78.892862 c -11.46584,1.998833 -20.24923,6.600912 -26.35022,13.806251 -6.1011,7.205741 -9.15162,15.542081 -9.15157,25.009041 -5e-5,10.83478 3.15566,19.3815 9.46714,25.64018 6.31137,6.25898 14.98958,11.07144 26.03465,14.43739 l 0,0 z m 16.88307,117.55037 c 11.04489,-1.68303 20.14386,-6.49549 27.29693,-14.43739 7.15282,-7.94184 10.72929,-17.96123 10.72943,-30.05819 -1.4e-4,-10.62416 -2.70879,-19.17088 -8.12596,-25.64018 -5.41744,-6.46912 -15.38423,-11.96531 -29.9004,-16.4886 l 0,86.62436 z"
         id="text2413" />
    </g>
    <path
       inkscape:connector-curvature="0"
       sodipodi:nodetypes="cc"
       id="path4370"
       d="m 455.37677,43.427273 0,265.043727"
       style="fill:none;stroke:#ffffff;stroke-width:30;stroke-linecap:round;stroke-linejoin:round;stroke-miterlimit:4;stroke-opacity:1;stroke-dasharray:none" />
  </g>
</svg>

<svg width="580" height="580" viewBox="0 0 580 580" fill="none" xmlns="http://www.w3.org/2000/svg">
<g clip-path="url(#clip0)">
<path d="M66.2751 1.76766C24.9401 1.76766 1.7041 23.1387 1.7041 66.8037V516.927C1.7041 557.771 22.5981 579.156 63.8961 579.156H515.92C557.227 579.156 578.149 558.84 578.149 516.927V66.8037C578.149 24.2027 557.227 1.76766 514.627 1.76766C514.624 1.76766 66.1331 1.62466 66.2751 1.76766Z" fill="#111111" stroke="#EEEEEE" stroke-width="3.408"/>
<path d="M39.3247 378.267V45.6846H164.78C186.862 45.6849 203.725 46.7436 215.371 48.8607C231.705 51.5834 245.393 56.7634 256.433 64.4009C267.474 72.0389 276.359 82.7393 283.09 96.5021C289.82 110.265 293.185 125.39 293.185 141.875C293.185 170.157 284.186 194.092 266.189 213.677C248.191 233.263 215.673 243.056 168.637 243.056H83.3363V378.267H39.3247V378.267ZM83.3363 203.809H169.318C197.751 203.809 217.942 198.515 229.89 187.928C241.838 177.341 247.812 162.444 247.813 143.236C247.812 129.322 244.296 117.412 237.263 107.505C230.23 97.5989 220.967 91.0577 209.473 87.8813C202.062 85.9154 188.374 84.9323 168.41 84.932H83.3363V203.809V203.809Z" fill="white" stroke="white" stroke-width="17.9835" stroke-linecap="round" stroke-linejoin="round"/>
<path d="M333.706 285H557.906" stroke="white" stroke-width="30.9339" stroke-linejoin="round"/>
<path d="M398.254 46.166C384.384 46.166 377.027 53.7381 373.63 62.6015L355.599 109.159C348.451 110.076 335.78 118.466 335.78 134.36V193.566H353.331V212.5C353.331 235.795 386.298 235.521 386.298 212.5V193.566H445.6H445.619H504.921V212.5C504.921 235.521 537.888 235.795 537.888 212.5V193.566H555.439V134.36C555.439 118.466 542.768 110.076 535.62 109.159L517.57 62.6015C514.173 53.7381 506.815 46.166 492.945 46.166H467.456H424.051H398.254H398.254ZM398.043 63.1205H445.561H445.6H445.619H493.157C499.101 63.1758 501.647 66.8931 503.345 72.0398L516.935 108.678H445.619H445.6H445.561H374.264L387.855 72.0398C389.553 66.8931 392.098 63.1758 398.043 63.1205V63.1205ZM370.343 126.498C378.753 126.498 385.567 133.515 385.567 142.184C385.567 150.853 378.753 157.889 370.343 157.889C361.933 157.889 355.118 150.853 355.118 142.184C355.118 133.515 361.933 126.498 370.343 126.498V126.498ZM520.876 126.498C529.287 126.498 536.101 133.515 536.101 142.184C536.101 150.853 529.287 157.889 520.876 157.889C512.466 157.889 505.632 150.853 505.632 142.184C505.632 133.515 512.466 126.498 520.876 126.498V126.498Z" fill="white"/>
<path d="M399.536 342.484C385.667 342.484 378.309 350.056 374.912 358.92L356.881 405.477C349.733 406.394 337.062 414.784 337.062 430.678V489.884H354.613V508.819C354.613 532.114 387.58 531.839 387.58 508.819V489.884H446.882H446.901H506.203V508.819C506.203 531.839 539.17 532.114 539.17 508.819V489.884H556.721V430.678C556.721 414.784 544.05 406.394 536.902 405.477L518.852 358.92C515.455 350.056 508.098 342.484 494.228 342.484H468.738H425.333H399.536H399.536ZM399.325 359.439H446.844H446.882H446.901H494.439C500.383 359.494 502.929 363.211 504.627 368.358L518.218 404.997H446.901H446.882H446.844H375.546L389.137 368.358C390.835 363.211 393.38 359.494 399.325 359.439ZM371.625 422.816C380.036 422.816 386.849 429.834 386.849 438.502C386.849 447.171 380.036 454.207 371.625 454.207C363.215 454.207 356.401 447.171 356.401 438.502C356.401 429.834 363.215 422.816 371.625 422.816ZM522.158 422.816C530.569 422.816 537.383 429.834 537.383 438.502C537.383 447.171 530.569 454.207 522.158 454.207C513.748 454.207 506.915 447.171 506.915 438.502C506.915 429.834 513.748 422.816 522.158 422.816Z" fill="white"/>
<path d="M223.324 396.056C223.534 396.145 224.323 396.323 225.691 396.59C247.256 400.154 263.456 406.656 274.291 416.099C285.126 425.541 290.544 437.923 290.544 453.245C290.544 468.922 284.6 482.507 272.713 493.998C260.826 505.489 244.363 511.725 223.324 512.705V537.023H206.44V512.972C184.98 510.923 168.517 505.022 157.051 495.267C145.584 485.513 139.115 471.862 137.642 454.314L166.045 450.038C168.254 463.221 172.725 473.376 179.457 480.503C186.19 487.629 195.184 491.682 206.44 492.662V416.099C185.085 412.179 169.096 405.632 158.471 396.457C147.846 387.282 142.534 375.479 142.534 361.048C142.534 346.707 147.793 334.391 158.313 324.103C168.833 313.814 184.875 307.868 206.44 306.265V294.773H223.324V306.265C241.207 307.779 255.303 312.589 265.613 320.695C275.922 328.802 282.391 340.159 285.021 354.768L255.514 358.376C253.831 349.29 250.307 342.097 244.942 336.796C239.577 331.496 232.371 328.089 223.324 326.575V396.056ZM206.44 393.116V326.307C194.974 328 186.19 331.897 180.089 337.999C173.987 344.101 170.936 351.16 170.937 359.177C170.936 368.353 174.092 375.59 180.404 380.89C186.716 386.191 195.394 390.266 206.44 393.116ZM223.324 492.662C234.369 491.237 243.469 487.161 250.622 480.436C257.775 473.71 261.352 465.226 261.352 454.982C261.352 445.985 258.643 438.747 253.226 433.269C247.808 427.79 237.841 423.136 223.324 419.306V492.662V492.662Z" fill="white"/>
<path d="M214.098 294.447V538.356" stroke="white" stroke-width="27.6077" stroke-linecap="round" stroke-linejoin="round"/>
</g>
<defs>
<clipPath id="clip0">
<path d="M0 0H580V580H0V0Z" fill="white"/>
</clipPath>
</defs>
</svg>
